resources/svg/double-quotes-r.svg

<svg fill="currentColor" viewBox="0 0 24 24" xmlns="http://www.w3.org/2000/svg"><path d="M19.4167 6.67891C20.4469 7.77257 21.0001 9 21.0001 10.9897C21.0001 14.4891 18.5436 17.6263 14.9695 19.1768L14.0768 17.7992C17.4121 15.9946 18.0639 13.6539 18.3245 12.178C17.7875 12.4557 17.0845 12.5533 16.3954 12.4895C14.591 12.3222 13.1689 10.8409 13.1689 9C13.1689 7.067 14.7359 5.5 16.6689 5.5C17.742 5.5 18.7681 5.99045 19.4167 6.67891ZM9.41669 6.67891C10.4469 7.77257 11.0001 9 11.0001 10.9897C11.0001 14.4891 8.54359 17.6263 4.96951 19.1768L4.07682 17.7992C7.41206 15.9946 8.06392 13.6539 8.32447 12.178C7.78747 12.4557 7.08452 12.5533 6.39539 12.4895C4.59102 12.3222 3.16895 10.8409 3.16895 9C3.16895 7.067 4.73595 5.5 6.66895 5.5C7.742 5.5 8.76814 5.99045 9.41669 6.67891Z"/></svg>

<svg xmlns="http://www.w3.org/2000/svg" viewBox="0 0 24 24" fill="currentColor">
    <g>
        <path fill="none" d="M0 0h24v24H0z"/>
        <path d="M19.417 6.679C20.447 7.773 21 9 21 10.989c0 3.5-2.457 6.637-6.03 8.188l-.893-1.378c3.335-1.804 3.987-4.145 4.247-5.621-.537.278-1.24.375-1.929.311-1.804-.167-3.226-1.648-3.226-3.489a3.5 3.5 0 0 1 3.5-3.5c1.073 0 2.099.49 2.748 1.179zm-10 0C10.447 7.773 11 9 11 10.989c0 3.5-2.457 6.637-6.03 8.188l-.893-1.378c3.335-1.804 3.987-4.145 4.247-5.621-.537.278-1.24.375-1.929.311C4.591 12.322 3.17 10.841 3.17 9a3.5 3.5 0 0 1 3.5-3.5c1.073 0 2.099.49 2.748 1.179z"/>
    </g>
</svg>
